!!!SOCIAL_FUNCTION:	songs received from animals
!!!PDT:	1918

Specific Region: Dakotas, Minnesota, Montana, Nebraska
!!!REG: Dakotas and Montana
!!!LING_GROUP: Siouan
!!!LANG: Tone
!!!OTL@ENG: Weapon Song
!!!ONM: No. 45
**kern
*Imale
*clefF4
*k[f#c#g#]
*M3/4
*>[A,A]
*>norep[A]
*>A
=1!|:
*MM60
12f#
12c#
12c#
4c#
4c#
=2
12f#
12c#
12c#
4c#
12B
12c#
12A
=3||
*M2/4
12B
12c#
12A
8.F#
16F#
=4
[2F#
=5
4F#]
12c#
12B
12B
=6
4B
4A
=7
12c#
12B
12B
8B
16c#
16B
=8||
*M3/4
8.A
16F#
8.A
16F#
8.F#
16F#
=9||
*M2/4
2F#
=10||
*M3/4
8.A
16F#
8.A
16F#
8.F#
16F#
=11||
*M2/4
2F#
=12
2F#
==:|!
*-
!!!CNT: Native American -- Sioux
!!!MRD: 1911/07//-1914///
!!!OCL: Frances Densmore
!!!YOR1: Teton Sioux Music, Bulletin 61,
!!!YOR2: Bureau of American Ethnology, Smithsonian Institution
!!!PPR: Government Printing Office
!!!PPP: Washington, D.C.
!!!PDT: 1918///
!!!ENC: Craig Stuart Sapp
!!!END: 2002/03/25/
!!!EEV: 2002/03/31/
!!!AGN: Song of Personal Dreams/Song Received from Animals
!!!MPN@@SIO: Tatang'ka-ohi'tika
!!!MPN@ENG: Brave Buffalo
!!!TXO: Teton Sioux
!!!MLC: Standing Rock Reservation, South Dakota, United States of America
!!!ARL: 45.9/-100.7#
!!!catalog: Catalogue No. 608
!!!PPG: 176
!!!EFL: 45/245
!!!VTS: 3299768935
